X:424
T:Reel 424
M:4/4
K:Amix
L:1/8
AF|E>A, (3A,G,A, CDEC|B,G,DB, G,B,B,D|EA,A,B, CB,A,C|EDED CA,A,G|EA,A,B, CEA,C|DG,G,B, B,G,DG,|EA,A,B, CB,CE|DB,GB, A,2A,|A|BABA GAGE|DEGA BGAF|GABG AFGE|DB,G,B, A,2CD|EAAB cABA|GEFD E2GE|FGFA GEFD|EDB,C A,2|
